src/icons/svg/fuzhi.svg

<?xml version="1.0" standalone="no"?><!DOCTYPE svg PUBLIC "-//W3C//DTD SVG 1.1//EN" "http://www.w3.org/Graphics/SVG/1.1/DTD/svg11.dtd"><svg class="icon" width="128px" height="128.00px" viewBox="0 0 1024 1024" version="1.1" xmlns="http://www.w3.org/2000/svg"><path fill="#1296db" d="M394.666667 106.666667h448a74.666667 74.666667 0 0 1 74.666666 74.666666v448a74.666667 74.666667 0 0 1-74.666666 74.666667H394.666667a74.666667 74.666667 0 0 1-74.666667-74.666667V181.333333a74.666667 74.666667 0 0 1 74.666667-74.666666z m0 64a10.666667 10.666667 0 0 0-10.666667 10.666666v448a10.666667 10.666667 0 0 0 10.666667 10.666667h448a10.666667 10.666667 0 0 0 10.666666-10.666667V181.333333a10.666667 10.666667 0 0 0-10.666666-10.666666H394.666667z m245.333333 597.333333a32 32 0 0 1 64 0v74.666667a74.666667 74.666667 0 0 1-74.666667 74.666666H181.333333a74.666667 74.666667 0 0 1-74.666666-74.666666V394.666667a74.666667 74.666667 0 0 1 74.666666-74.666667h74.666667a32 32 0 0 1 0 64h-74.666667a10.666667 10.666667 0 0 0-10.666666 10.666667v448a10.666667 10.666667 0 0 0 10.666666 10.666666h448a10.666667 10.666667 0 0 0 10.666667-10.666666v-74.666667z" /></svg>

<svg class="icon" width="128" height="128" viewBox="0 0 1024 1024" xmlns="http://www.w3.org/2000/svg"><path fill="#1296db" d="M394.667 106.667h448a74.667 74.667 0 0 1 74.666 74.666v448A74.667 74.667 0 0 1 842.667 704h-448A74.667 74.667 0 0 1 320 629.333v-448a74.667 74.667 0 0 1 74.667-74.666zm0 64A10.667 10.667 0 0 0 384 181.333v448A10.667 10.667 0 0 0 394.667 640h448a10.667 10.667 0 0 0 10.666-10.667v-448a10.667 10.667 0 0 0-10.666-10.666h-448zM640 768a32 32 0 0 1 64 0v74.667a74.667 74.667 0 0 1-74.667 74.666h-448a74.667 74.667 0 0 1-74.666-74.666v-448A74.667 74.667 0 0 1 181.333 320H256a32 32 0 0 1 0 64h-74.667a10.667 10.667 0 0 0-10.666 10.667v448a10.667 10.667 0 0 0 10.666 10.666h448A10.667 10.667 0 0 0 640 842.667V768z"/></svg>
